!!!COM: Hindemith, Paul
!!!OTL: Die Harmonie der Welt (The Harmony of the World) Symphony
!!!OMV: III: Musica Mundana (Music of the Cosmos)
!!!example: 682
!!!work: Hin-95
**kern	**dynam	**kern	**dynam	**kern	**dynam	**kern	**dynam	**kern	**dynam	**kern	**dynam	**kern	**dynam	**kern	**dynam	**kern	**dynam	**kern	**dynam	**kern	**dynam	**kern	**dynam	**kern	**dynam	**kern	**dynam	**kern	**dynam	**kern	**dynam
*part16	*part16	*part15	*part15	*part14	*part14	*part13	*part13	*part12	*part12	*part11	*part11	*part10	*part10	*part9	*part9	*part8	*part8	*part7	*part7	*part6	*part6	*part5	*part5	*part4	*part4	*part3	*part3	*part2	*part2	*part1	*part1
*staff16	*	*staff15	*	*staff14	*	*staff13	*	*staff12	*	*staff11	*	*staff10	*	*staff9	*	*staff8	*	*staff7	*	*staff6	*	*staff5	*	*staff4	*	*staff3	*	*staff2	*	*staff1	*
*I"Contrabass	*	*I"Violoncello	*	*I"Viola	*	*I"Violin II	*	*I"Violin I	*	*I"Tambourine	*	*I"Horn in F	*	*I"Horn in F	*	*I"Contrabassoon	*	*I"Bassoon	*	*I"Bass Clarinet in Bb	*	*I"Clarinet in Bb	*	*I"Oboe	*	*I"Oboe	*	*I"Flute	*	*I"Piccolo	*
*I'Cb.	*	*I'Vc.	*	*I'Vla.	*	*I'Vln. II	*	*I'Vln. I	*	*I'Tamb.	*	*I'Hn.	*	*I'Hn.	*	*I'Cbsn.	*	*I'Bsn.	*	*I'B. Cl.	*	*I'Cl.	*	*I'Ob.	*	*I'Ob.	*	*I'Fl.	*	*I'Picc.	*
*clefF4	*	*clefF4	*	*clefC3	*	*clefG2	*	*clefG2	*	*clefpercussion0	*	*clefG2	*	*clefG2	*	*clefF4	*	*clefF4	*	*clefG2	*	*clefG2	*	*clefG2	*	*clefG2	*	*clefG2	*	*clefG2	*
*k[]	*	*k[]	*	*k[]	*	*k[]	*	*k[]	*	*	*	*	*	*	*	*k[]	*	*k[]	*	*k[]	*	*k[]	*	*k[]	*	*k[]	*	*k[]	*	*k[]	*
*	*	*	*	*	*	*	*	*	*	*	*	*	*	*	*	*	*	*	*	*	*	*	*	*	*	*	*	*	*	*	*
*M9/8	*	*M9/8	*	*M9/8	*	*M9/8	*	*M9/8	*	*M9/8	*	*M9/8	*	*M9/8	*	*M9/8	*	*M9/8	*	*M9/8	*	*M9/8	*	*M9/8	*	*M9/8	*	*M9/8	*	*M9/8	*
*MM121	*	*MM121	*	*MM121	*	*MM121	*	*MM121	*	*MM121	*	*MM121	*	*MM121	*	*MM121	*	*MM121	*	*MM121	*	*MM121	*	*MM121	*	*MM121	*	*MM121	*	*MM121	*
=102	=102	=102	=102	=102	=102	=102	=102	=102	=102	=102	=102	=102	=102	=102	=102	=102	=102	=102	=102	=102	=102	=102	=102	=102	=102	=102	=102	=102	=102	=102	=102
4.r	.	4.r	.	8e	.	8r	.	8r	.	8r	.	8r	.	8r	.	8C	.	8c	.	8%9r	.	4r	.	4r	.	(16eeLL	f	(16eeeLL	f	(16eeeeLL	f
.	.	.	.	.	.	.	.	.	.	.	.	.	.	.	.	.	.	.	.	.	.	.	.	.	.	16b	.	16bb	.	16bbb	.
.	.	.	.	8r	.	8r	.	8r	.	8xL	mf	8A'L	f	8e'L 8a	f	8r	.	8r	.	.	.	.	.	.	.	16cc#X	.	16ccc#X	.	16cccc#X	.
.	.	.	.	.	.	.	.	.	.	.	.	.	.	.	.	.	.	.	.	.	.	.	.	.	.	16dd	.	16ddd	.	16dddd	.
.	.	.	.	8r	.	[8e	f	[8e	f	16xL	.	16AL 16e	.	16eL 16a	.	8r	.	8r	.	.	.	8r	.	8r	.	16a	.	16aa	.	16aaa	.
.	.	.	.	.	.	.	.	.	.	16xJJ	.	16AJJ 16e	.	16eJJ 16a	.	.	.	.	.	.	.	.	.	.	.	16eJJ	.	16eeJJ	.	16eeeJJ	.
[4.AAA~	.	(4.C#X~t	.	(4.c#X~t	.	4.e_	.	4.e_	.	8x	.	8A'L 8a	.	8e'L 8a	.	[4.AAA	f	[4.AA [4.A	f	.	.	4.r	.	4.r	.	16f#XLL	.	16ff#XLL	.	16fff#XLL	.
.	.	.	.	.	.	.	.	.	.	.	.	.	.	.	.	.	.	.	.	.	.	.	.	.	.	16a	.	16aa	.	16aaa	.
.	.	.	.	.	.	.	.	.	.	8r	.	8G'	.	8d' 8g	.	.	.	.	.	.	.	.	.	.	.	16b	.	16bb	.	16bbb	.
.	.	.	.	.	.	.	.	.	.	.	.	.	.	.	.	.	.	.	.	.	.	.	.	.	.	16dd	.	16ddd	.	16dddd	.
.	.	.	.	.	.	.	.	.	.	8x	.	8F#X'J 8c#X	.	8c#X'J 8f#X	.	.	.	.	.	.	.	.	.	.	.	16ee	.	16eee	.	16eeee	.
.	.	.	.	.	.	.	.	.	.	.	.	.	.	.	.	.	.	.	.	.	.	.	.	.	.	16cc#JJ	.	16ccc#JJ	.	16cccc#JJ	.
4AAA]	.	4Cn)	.	4cn)	.	4e]	.	4e]	.	4.xt	.	8A'L	.	8e'L 8a	.	4AAA]	.	4AA] 4A]	.	.	.	8r	.	8r	.	8a)	.	8aa)	.	8aaa)	.
.	.	.	.	.	.	.	.	.	.	.	.	8Bn' 8f#X	.	8f#X' 8b	.	.	.	.	.	.	.	(16eeLL	f	(16eeLL	f	8r	.	8r	.	8r	.
.	.	.	.	.	.	.	.	.	.	.	.	.	.	.	.	.	.	.	.	.	.	16dd	.	16dd	.	.	.	.	.	.	.
8r	.	8r	.	8r	.	(8e	.	(8e	.	.	.	8cn'J	.	8gn'J 8ccn	.	8r	.	8r	.	.	.	16b	.	16b	.	8r	.	8r	.	8r	.
.	.	.	.	.	.	.	.	.	.	.	.	.	.	.	.	.	.	.	.	.	.	16aJJ	.	16aJJ	.	.	.	.	.	.	.
=103	=103	=103	=103	=103	=103	=103	=103	=103	=103	=103	=103	=103	=103	=103	=103	=103	=103	=103	=103	=103	=103	=103	=103	=103	=103	=103	=103	=103	=103	=103	=103
[4.EEE~	.	(4.GG#X~t	.	(4.G#X~t	.	[4.b	.	[4.b	.	4r	.	8G#X'L 8d#X	.	8d#X'L 8g#X	.	[4.EEE	.	[4.EE [4.E	.	8%9r	.	16bLL	.	16bLL	.	4r	.	4r	.	4r	.
.	.	.	.	.	.	.	.	.	.	.	.	.	.	.	.	.	.	.	.	.	.	16g#X	.	16g#X	.	.	.	.	.	.	.
.	.	.	.	.	.	.	.	.	.	.	.	8F#X' 8f#X	.	8c#X' 8f#X	.	.	.	.	.	.	.	16a	.	16a	.	.	.	.	.	.	.
.	.	.	.	.	.	.	.	.	.	.	.	.	.	.	.	.	.	.	.	.	.	16b	.	16b	.	.	.	.	.	.	.
.	.	.	.	.	.	.	.	.	.	8r	.	8Fn'J 8cn	.	8cn'J 8fn	.	.	.	.	.	.	.	16dd	.	16dd	.	8r	.	8r	.	8r	.
.	.	.	.	.	.	.	.	.	.	.	.	.	.	.	.	.	.	.	.	.	.	16ccnJJ	.	16ccnJJ	.	.	.	.	.	.	.
4EEE]	.	4GGn)	.	4Gn)	.	16%3bL]	.	16%3bL]	.	4.r	.	4.Et 4.e	.	4.Bt 4.e	.	4EEE]	.	4EE] 4E]	.	.	.	16bLL	.	16bLL	.	8r	.	8r	.	8r	.
.	.	.	.	.	.	.	.	.	.	.	.	.	.	.	.	.	.	.	.	.	.	16aJ	.	16aJ	.	.	.	.	.	.	.
.	.	.	.	.	.	.	.	.	.	.	.	.	.	.	.	.	.	.	.	.	.	8eJ)	.	8eJ)	.	8r	.	8r	.	8r	.
.	.	.	.	.	.	16%3aJ)	.	16%3aJ)	.	.	.	.	.	.	.	.	.	.	.	.	.	.	.	.	.	.	.	.	.	.	.
8r	.	8r	.	8r	.	.	.	.	.	.	.	.	.	.	.	8r	.	8r	.	.	.	8r	.	8r	.	(16eeLL	.	(16eeeLL	.	(16eeeLL	.
.	.	.	.	.	.	.	.	.	.	.	.	.	.	.	.	.	.	.	.	.	.	.	.	.	.	16ddJJ	.	16dddJJ	.	16dddJJ	.
[4.BBB~	.	(4.D#X~t	.	(4.d#X~t	.	[4.b	.	[4.b	.	8r	.	8r	.	8r	.	[4.BBB	.	[4.BB [4.B	.	.	.	4.r	.	4.r	.	16bLL	.	16bbLL	.	16bbLL	.
.	.	.	.	.	.	.	.	.	.	.	.	.	.	.	.	.	.	.	.	.	.	.	.	.	.	16a	.	16aa	.	16aa	.
.	.	.	.	.	.	.	.	.	.	8xL	mf	8F#XL	.	8BL 8f#X	.	.	.	.	.	.	.	.	.	.	.	16b	.	16bb	.	16bb	.
.	.	.	.	.	.	.	.	.	.	.	.	.	.	.	.	.	.	.	.	.	.	.	.	.	.	16ff#X	.	16fff#X	.	16fff#X	.
.	.	.	.	.	.	.	.	.	.	16xL	.	16F#L 16B	.	16BL 16f#	.	.	.	.	.	.	.	.	.	.	.	16dd#X	.	16ddd#X	.	16ddd#X	.
.	.	.	.	.	.	.	.	.	.	16xJJ	.	16F#JJ 16B	.	16BJJ 16f#	.	.	.	.	.	.	.	.	.	.	.	16aa#XJJ	.	16aa#XJJ	.	16aaa#XJJ	.
=104	=104	=104	=104	=104	=104	=104	=104	=104	=104	=104	=104	=104	=104	=104	=104	=104	=104	=104	=104	=104	=104	=104	=104	=104	=104	=104	=104	=104	=104	=104	=104
4BBB]	.	4Dn)	.	4dn)	.	4b]	.	4b]	.	8x	.	8F#XL 8f#X	.	8BL 8f#X	.	4BBB]	.	4BB] 4B]	.	8%9r	.	4r	.	4r	.	16aanLL	.	16aanLL	.	16aaanLL	.
.	.	.	.	.	.	.	.	.	.	.	.	.	.	.	.	.	.	.	.	.	.	.	.	.	.	16gg#X	.	16gg#X	.	16ggg#X	.
.	.	.	.	.	.	.	.	.	.	8r	.	8E 8A	.	8A 8e	.	.	.	.	.	.	.	.	.	.	.	16ff#X	.	16ff#X	.	16fff#X	.
.	.	.	.	.	.	.	.	.	.	.	.	.	.	.	.	.	.	.	.	.	.	.	.	.	.	16eeJ	.	16eeJ	.	16eeeJ	.
8r	.	8r	.	8r	.	([8cc#X	.	([8cc#X	.	8x	.	8DJ 8d	.	8GJ 8dn	.	8r	.	8r	.	.	.	8r	.	8r	.	8ff#J)	.	8ff#J)	.	8fff#J)	.
[4.FFF#X~	.	(4.A#X~t	.	(4.a#X~t	.	4cc#]	.	4cc#]	.	4.xt	.	8C#XL 8c#X	.	8F#XL 8c#X	.	[4.FFF#X	.	[4.FF#X [4.F#X	.	.	.	(16eLL 16ee	.	(16eeLL	.	4.r	.	4.r	.	4.r	.
.	.	.	.	.	.	.	.	.	.	.	.	.	.	.	.	.	.	.	.	.	.	16d 16dd	.	16dd	.	.	.	.	.	.	.
.	.	.	.	.	.	.	.	.	.	.	.	8F#X 8f#X	.	8c#X 8f#	.	.	.	.	.	.	.	16c#X 16cc#X	.	16cc#X	.	.	.	.	.	.	.
.	.	.	.	.	.	.	.	.	.	.	.	.	.	.	.	.	.	.	.	.	.	16B 16b	.	16b	.	.	.	.	.	.	.
.	.	.	.	.	.	8dd)	.	8dd)	.	.	.	8A#XJ 8a#X	.	8f#XJ 8a#X	.	.	.	.	.	.	.	16c# 16cc#	.	16cc#	.	.	.	.	.	.	.
.	.	.	.	.	.	.	.	.	.	.	.	.	.	.	.	.	.	.	.	.	.	16EJJ 16e	.	16eJJ	.	.	.	.	.	.	.
4FFF#]	.	4An)	.	4an)	.	([4.dd~	.	([4.dd~	.	4.r	.	8c#XL 8f#	.	8f#L 8cc#X	.	4FFF#]	.	4FF#] 4F#]	.	.	.	16F#XLL 16f#X	.	16f#XLL	.	4.r	.	4.r	.	4.r	.
.	.	.	.	.	.	.	.	.	.	.	.	.	.	.	.	.	.	.	.	.	.	16A 16a	.	16a	.	.	.	.	.	.	.
.	.	.	.	.	.	.	.	.	.	.	.	8B	.	8e 8b	.	.	.	.	.	.	.	16B 16b	.	16b	.	.	.	.	.	.	.
.	.	.	.	.	.	.	.	.	.	.	.	.	.	.	.	.	.	.	.	.	.	16E 16e	.	16e	.	.	.	.	.	.	.
8r	.	8r	.	8r	.	.	.	.	.	.	.	8AnJ 8dn	.	8dJ 8an	.	8r	.	8r	.	.	.	16F# 16f#	.	16f#	.	.	.	.	.	.	.
.	.	.	.	.	.	.	.	.	.	.	.	.	.	.	.	.	.	.	.	.	.	16DJJ 16d	.	16dJJ	.	.	.	.	.	.	.
=105	=105	=105	=105	=105	=105	=105	=105	=105	=105	=105	=105	=105	=105	=105	=105	=105	=105	=105	=105	=105	=105	=105	=105	=105	=105	=105	=105	=105	=105	=105	=105
*M6/8	*	*M6/8	*	*M6/8	*	*M6/8	*	*M6/8	*	*M6/8	*	*M6/8	*	*M6/8	*	*M6/8	*	*M6/8	*	*M6/8	*	*M6/8	*	*M6/8	*	*M6/8	*	*M6/8	*	*M6/8	*
[4.GGG~	>	(4.BB~t	>	(4.B~t	>	4dd]	>	4dd]	>	2.r	.	4A 4e#X	.	4e 4b	.	[4.GGG	>	[4.GG [4.G	>	2.r	.	8G) 8g	.	8g)	.	8r	.	8r	.	8r	.
.	.	.	.	.	.	.	.	.	.	.	.	.	.	.	.	.	.	.	.	.	.	8r	.	8r	.	(16eeLL	>	(16eeeLL	>	(16eeeLL	>
.	.	.	.	.	.	.	.	.	.	.	.	.	.	.	.	.	.	.	.	.	.	.	.	.	.	16dd	.	16ddd	.	16ddd	.
.	.	.	.	.	.	8g)	]	8g)	]	.	.	8r	.	8r	.	.	.	.	.	.	.	8r	.	8r	.	16a	.	16aa	.	16aa	.
.	.	.	.	.	.	.	.	.	.	.	.	.	.	.	.	.	.	.	.	.	.	.	.	.	.	16bJJ	.	16bbJJ	.	16bbJJ	.
4GGG]	] mf	4BB-X)	] mf	4B-X)	] mf	[4.g	mf	[4.g	mf	.	.	8r	.	8r	.	4GGG]	] mf	4GG] 4G]	] mf	.	.	4.r	.	4.r	.	16ccLL	.	16cccLL	.	16cccLL	.
.	.	.	.	.	.	.	.	.	.	.	.	.	.	.	.	.	.	.	.	.	.	.	.	.	.	16dd	] mf	16ddd	] mf	16ddd	] mf
.	.	.	.	.	.	.	.	.	.	.	.	8GL	mf	8dL	mf	.	.	.	.	.	.	.	.	.	.	16ffn	.	16fffn	.	16fff	.
.	.	.	.	.	.	.	.	.	.	.	.	.	.	.	.	.	.	.	.	.	.	.	.	.	.	16ee	.	16eee	.	16eee	.
8r	.	8r	.	8r	.	.	.	.	.	.	.	16GL	.	16dL	.	8r	.	8r	.	.	.	.	.	.	.	16aa	.	16aa	.	16aaa	.
.	.	.	.	.	.	.	.	.	.	.	.	16GJJ	.	16dJJ	.	.	.	.	.	.	.	.	.	.	.	16bb-XJJ	.	16bb-XJJ	.	16bbb-XJJ	.
=106	=106	=106	=106	=106	=106	=106	=106	=106	=106	=106	=106	=106	=106	=106	=106	=106	=106	=106	=106	=106	=106	=106	=106	=106	=106	=106	=106	=106	=106	=106	=106
*M9/8	*	*M9/8	*	*M9/8	*	*M9/8	*	*M9/8	*	*M9/8	*	*M9/8	*	*M9/8	*	*M9/8	*	*M9/8	*	*M9/8	*	*M9/8	*	*M9/8	*	*M9/8	*	*M9/8	*	*M9/8	*
[4.BBB-X~	.	(4.D~T	.	(4.d~T	.	8gL]	.	8gL]	.	8%9r	.	8cL	.	8gL	.	[4.BBBB-X	.	[4.BBB-X [4.BB-X	.	8%9r	.	8r	.	8r	.	16ffLL	.	16fffLL	.	16fffLL	.
.	.	.	.	.	.	.	.	.	.	.	.	.	.	.	.	.	.	.	.	.	.	.	.	.	.	16cc	.	16ccc	.	16ccc	.
.	.	.	.	.	.	(8b-X~	.	(8b-X~	.	.	.	8BB-X	.	8F	.	.	.	.	.	.	.	8r	.	8r	.	16ddJJ)	.	16dddJJ)	.	16dddJJ)	.
.	.	.	.	.	.	.	.	.	.	.	.	.	.	.	.	.	.	.	.	.	.	.	.	.	.	16r	.	16r	.	16r	.
.	.	.	.	.	.	8e-XJ)	.	8e-XJ)	.	.	.	16BB-L	.	16FL	.	.	.	.	.	.	.	(16B-XLL 16b-X	.	(16b-XLL	.	8r	.	8r	.	8r	.
.	.	.	.	.	.	.	.	.	.	.	.	16BB-JJ	.	16FJJ	.	.	.	.	.	.	.	16cJJ 16cc	.	16ccJJ	.	.	.	.	.	.	.
4BBB-]	.	4D-X)	.	4d-X)	.	4.f	.	4.f	.	.	.	8En	.	8B-X	.	4BBBB-]	.	4BBB-] 4BB-]	.	.	.	16d-XLL 16dd-X	.	16dd-XLL	.	4.r	.	4.r	.	4.r	.
.	.	.	.	.	.	.	.	.	.	.	.	.	.	.	.	.	.	.	.	.	.	16A-X 16a-X	.	16aa-X	.	.	.	.	.	.	.
.	.	.	.	.	.	.	.	.	.	.	.	8r	.	8r	.	.	.	.	.	.	.	16F 16f	.	16ff	.	.	.	.	.	.	.
.	.	.	.	.	.	.	.	.	.	.	.	.	.	.	.	.	.	.	.	.	.	16B- 16b-	.	16bb-X	.	.	.	.	.	.	.
8r	.	(4.AAn~T	.	(4.An~T	.	.	.	.	.	.	.	8r	.	8r	.	8r	.	8r	.	.	.	16A- 16a-	.	16aa-	.	.	.	.	.	.	.
.	.	.	.	.	.	.	.	.	.	.	.	.	.	.	.	.	.	.	.	.	.	16e-XJJ	.	16ee-XJJ	.	.	.	.	.	.	.
[4.FFF~	.	.	.	.	.	4.c	.	4.c	.	.	.	8r	.	8r	.	[4.FFF	.	[4.FF [4.F	.	.	.	16cLL 16cc	.	16ccLL	.	4.r	.	4.r	.	4.r	.
.	.	.	.	.	.	.	.	.	.	.	.	.	.	.	.	.	.	.	.	.	.	16B- 16b-	.	16b-	.	.	.	.	.	.	.
.	.	.	.	.	.	.	.	.	.	.	.	16A-XLL	.	16e-XLL	.	.	.	.	.	.	.	16c 16cc	.	16cc	.	.	.	.	.	.	.
.	.	.	.	.	.	.	.	.	.	.	.	16A-J	.	16e-J	.	.	.	.	.	.	.	16g	.	16gg	.	.	.	.	.	.	.
.	.	[8AA-X)	.	[8A-X)	.	.	.	.	.	.	.	8d-XJ	.	8a-XJ	.	.	.	.	.	.	.	16fJJ)	.	16ffJJ)	.	.	.	.	.	.	.
.	.	.	.	.	.	.	.	.	.	.	.	.	.	.	.	.	.	.	.	.	.	16r	.	16r	.	.	.	.	.	.	.
=107	=107	=107	=107	=107	=107	=107	=107	=107	=107	=107	=107	=107	=107	=107	=107	=107	=107	=107	=107	=107	=107	=107	=107	=107	=107	=107	=107	=107	=107	=107	=107
!	!	!	!	!	!	!	!	!	!	!	!	!	!	!	!	!	!	!	!	!	!	!	!	!	!	!LO:TX:t=cresc.	!	!LO:TX:t=cresc.	!	!LO:TX:t=cresc.	!
4FFF]	.	4AA-X]	.	4A-X]	.	(8b-X~L	.	(8b-X~L	.	4r	.	16D-XLL 16d-X	.	16A-XLL 16a-X	.	4FFF]	.	4FF] 4F]	.	8%9r	.	4r	.	4r	.	(16ffLL	.	(16ffLL	.	(16fffLL	.
.	.	.	.	.	.	.	.	.	.	.	.	16D-J 16d-	.	16A-J 16a-	.	.	.	.	.	.	.	.	.	.	.	16ee-X	.	16ee-X	.	16eee-X	.
.	.	.	.	.	.	8e-X)	.	8e-X)	.	.	.	8G-X 8g-X	.	8d-X 8dd-X	.	.	.	.	.	.	.	.	.	.	.	16aa-X	.	16aa-X	.	16aaa-X	.
.	.	.	.	.	.	.	.	.	.	.	.	.	.	.	.	.	.	.	.	.	.	.	.	.	.	16aan	.	16aan	.	16aaan	.
8r	.	8r	.	8r	.	[8fJ	.	[8fJ	.	8r	.	16G-L	.	16d-L	.	8r	.	8r	.	.	.	8r	.	8r	.	16bb-X	.	16bb-X	.	16bbb-X	.
.	.	.	.	.	.	.	.	.	.	.	.	16G-JJ	.	16d-JJ	.	.	.	.	.	.	.	.	.	.	.	16cccJJ	.	16cccJJ	.	16ccccJJ	.
!	!	!	!	!	!	!	!	!	!	!	!	!	!	!	!	!LO:TX:t=cresc.	!	!LO:TX:t=cresc.	!	!	!	!	!	!	!	!	!	!	!	!	!
[4.EEE-X~	.	(4.GG~t	.	(4.G~t	.	4f]	.	4f]	.	8xL	p	[8B-XL	.	[8fL	.	[4.EEE-X	.	[4.EE-X [4.E-X	.	.	.	4.r	.	4.r	.	16ddd-XLL	.	16ddd-XLL	.	16dddd-XLL	.
.	.	.	.	.	.	.	.	.	.	.	.	.	.	.	.	.	.	.	.	.	.	.	.	.	.	16bb-	.	16bb-	.	16bbb-	.
!	!	!	!	!	!	!	!	!	!	!LO:TX:t=cresc.	!	!	!	!	!	!	!	!	!	!	!	!	!	!	!	!	!	!	!	!	!
.	.	.	.	.	.	.	.	.	.	16xL	.	8B-] 8f	.	8f] 8cc	.	.	.	.	.	.	.	.	.	.	.	16fff	.	16fff	.	16ffff	.
.	.	.	.	.	.	.	.	.	.	16xJ	.	.	.	.	.	.	.	.	.	.	.	.	.	.	.	16eee-X	.	16eee-X	.	16eeee-X	.
.	.	.	.	.	.	[8c	.	[8c	.	8xJ	.	16fL	.	16ccL	.	.	.	.	.	.	.	.	.	.	.	16bb-	.	16bb-	.	16bbb-	.
.	.	.	.	.	.	.	.	.	.	.	.	16fJJ	.	16ccJJ	.	.	.	.	.	.	.	.	.	.	.	16bbnJJ	.	16bbnJJ	.	16bbbnJJ	.
!LO:TX:t=cresc.	!	!LO:TX:t=cresc.	!	!LO:TX:t=cresc.	!	!LO:TX:t=cresc.	!	!LO:TX:t=cresc.	!	!	!	!LO:TX:t=cresc.	!	!LO:TX:t=cresc.	!	!	!	!	!	!	!	!	!	!	!	!	!	!	!	!	!
4EEE-]	.	4FF#X)	.	4F#X)	.	4c]	.	4c]	.	8r	.	8FL 8f	.	8cL 8cc	.	4EEE-]	.	4EE-] 4E-]	.	.	.	8r	.	8r	.	8ccc)	.	8ccc)	.	8cccc)	.
!	!	!	!	!	!	!	!	!	!	!	!	!	!	!	!	!	!	!	!	!	!	!LO:TX:t=cresc.	!	!LO:TX:t=cresc.	!	!	!	!	!	!	!
.	.	.	.	.	.	.	.	.	.	8xL	.	8An 8e#X	.	8en 8bn	.	.	.	.	.	.	.	(16dnLL 16dd	.	(16ddLL	.	8r	.	8r	.	8r	.
.	.	.	.	.	.	.	.	.	.	.	.	.	.	.	.	.	.	.	.	.	.	16en 16ee	.	16ee	.	.	.	.	.	.	.
8r	.	8r	.	8r	.	(8b-~	.	(8b-~	.	[8xtJ	.	8EnJ 8d-	.	8B-XJ 8a-	.	8r	.	8r	.	.	.	16g 16gg	.	16gg	.	8r	.	8r	.	8r	.
.	.	.	.	.	.	.	.	.	.	.	.	.	.	.	.	.	.	.	.	.	.	16fJJ 16ff	.	16ffJJ	.	.	.	.	.	.	.
=108	=108	=108	=108	=108	=108	=108	=108	=108	=108	=108	=108	=108	=108	=108	=108	=108	=108	=108	=108	=108	=108	=108	=108	=108	=108	=108	=108	=108	=108	=108	=108
*M6/8	*	*M6/8	*	*M6/8	*	*M6/8	*	*M6/8	*	*M6/8	*	*M6/8	*	*M6/8	*	*M6/8	*	*M6/8	*	*M6/8	*	*M6/8	*	*M6/8	*	*M6/8	*	*M6/8	*	*M6/8	*
[4.DDD-X~	.	(4.FFn~T	.	(4.Fn~T	.	8e-X)	.	8e-X)	.	4x]	.	8c-XL 8g-X	.	8g-XL 8dd-X	.	[4.DDD-X	.	[4.DD-X [4.D-X	.	4r	.	16b-XLL	.	16bb-XLL	.	4r	.	4r	.	4r	.
.	.	.	.	.	.	.	.	.	.	.	.	.	.	.	.	.	.	.	.	.	.	16cc-X	.	16ccc-X	.	.	.	.	.	.	.
.	.	.	.	.	.	4f	.	4f	.	.	.	8F 8f	.	8c 8cc	.	.	.	.	.	.	.	16b-	.	16bb-	.	.	.	.	.	.	.
.	.	.	.	.	.	.	.	.	.	.	.	.	.	.	.	.	.	.	.	.	.	16f 16ff	.	16ff	.	.	.	.	.	.	.
.	.	.	.	.	.	.	.	.	.	8r	.	8EJ 8en	.	8B-XJ 8b-X	.	.	.	.	.	8r	.	16g 16gg	.	16gg	.	8r	.	8r	.	8r	.
.	.	.	.	.	.	.	.	.	.	.	.	.	.	.	.	.	.	.	.	.	.	16a-XJJ 16aa-X	.	16aa-XJJ	.	.	.	.	.	.	.
!	!	!	!	!	!	!	!	!	!	!	!	!	!	!	!	!	!	!	!	!LO:TX:t=cresc.	!	!	!	!	!	!	!	!	!	!	!
4DDD-]	.	4EEn)	.	4En)	.	4.c	.	4.c	.	4.r	.	8FL 8f	.	8cL 8cc	.	4DDD-]	.	4DD-] 4D-]	.	4.c	mf	16gLL 16gg	.	16ggLL	.	8r	.	8r	.	8r	.
.	.	.	.	.	.	.	.	.	.	.	.	.	.	.	.	.	.	.	.	.	.	16f 16ff	.	16ff	.	.	.	.	.	.	.
.	.	.	.	.	.	.	.	.	.	.	.	8B-X 8e	.	8f 8b-	.	.	.	.	.	.	.	16cnJJ) 16ccn	.	16ccnJJ)	.	8r	.	8r	.	8r	.
.	.	.	.	.	.	.	.	.	.	.	.	.	.	.	.	.	.	.	.	.	.	16r	.	16r	.	.	.	.	.	.	.
8r	.	8r	.	8r	.	.	.	.	.	.	.	8dnJ	.	8anJ	.	8r	.	8r	.	.	.	8r	.	8r	.	(16ccLL	.	(16ccLL	.	(16cccLL	.
.	.	.	.	.	.	.	.	.	.	.	.	.	.	.	.	.	.	.	.	.	.	.	.	.	.	16ddnJJ)	.	16ddnJJ)	.	16dddJJ)	.
=	=	=	=	=	=	=	=	=	=	=	=	=	=	=	=	=	=	=	=	=	=	=	=	=	=	=	=	=	=	=	=
*-	*-	*-	*-	*-	*-	*-	*-	*-	*-	*-	*-	*-	*-	*-	*-	*-	*-	*-	*-	*-	*-	*-	*-	*-	*-	*-	*-	*-	*-	*-	*-
!!!system-decoration: [(s1,s2,s3,s4,s5,s6,s7,s8)][(s9,s10)]s11[(s12,s13,s14,s15,s16)]
!!!CDT: 1895/11/16-1963/12/28
!!!CBL: Hanau, Germany
!!!CDL: Frankfurt, Germany
!!!CNT: German
!!!AGN: Orchestral; Symphonic
!!!MCN: Sacher, Paul
!!!MDT: 1952/01/25
!!!MGN: Basel Chamber Orchestra
!!!MLC: Basel, Switzerland
!!!MPD: 1952
!!!MPN:
!!!ODT: 1951
!!!PDT: 1952
!!!excerpt-start-measure: 102
!!!excerpt-end-measure: 108
!!!excerpt-start-time: 4:56
!!!excerpt-end-time: 5:11
!!!EEV: 2020/01/22
!!!ONB: Converted from MusicXML on 2020/01/22
